images/footer/countries/1.svg

<svg width="37" height="22" fill="none" xmlns="http://www.w3.org/2000/svg"><path d="M0 0h37v1H0V0zm0 21h37v1H0v-1zM0 3h37v1H0V3zm0 3h37v1H0V6zm0 3h37v1H0V9zm0 3h37v1H0v-1zm0 3h37v1H0v-1zm0 3h37v1H0v-1z" fill="#fff"/><path d="M0 0h19v13H0V0zm0 13h1v9H0v-9zM36 0h1v22h-1V0z" fill="#fff"/></svg>

<svg width="37" height="22" viewBox="0 0 37 22" fill="none" xmlns="http://www.w3.org/2000/svg">
<path d="M0 0H37V1H0V0ZM0 21H37V22H0V21ZM0 3H37V4H0V3ZM0 6H37V7H0V6ZM0 9H37V10H0V9ZM0 12H37V13H0V12ZM0 15H37V16H0V15ZM0 18H37V19H0V18Z" fill="white"/>
<path d="M0 0H19V13H0V0ZM0 13H1V22H0V13ZM36 0H37V22H36V0Z" fill="white"/>
</svg>
